Numix-GalliumOS/48/places/start-here.svg

<svg width="48" xmlns="http://www.w3.org/2000/svg" height="48" viewBox="0 0 48 48" xmlns:xlink="http://www.w3.org/1999/xlink">
<path style="fill:#dc322f" d="M 48 24 C 48.011719 37.253906 37.261719 48 24 48 C 10.738281 48 -0.0117188 37.253906 0 24 C -0.0117188 10.746094 10.738281 0 24 0 C 37.261719 0 48.011719 10.746094 48 24 Z "/>
<path style="fill:none;stroke:#f9f9f9;stroke-linecap:round;stroke-width:7.299" d="M 73.333333 59.166667 L 73.333333 75.1875 M 73.333333 196.8125 L 73.333333 113.854167 C 73.333333 83.541667 97.729167 59.166667 128.041667 59.166667 C 158.375 59.166667 182.770833 83.541667 182.770833 113.854167 L 182.770833 196.8125 " transform="scale(.1875)"/>
</svg>

<svg xmlns="http://www.w3.org/2000/svg" viewBox="0 0 48 48">
 <path d="m 48 24 c 0.012 13.254 -10.738 24 -24 24 c -13.262 0 -24.01 -10.746 -24 -24 c -0.012 -13.254 10.738 -24 24 -24 c 13.262 0 24.01 10.746 24 24 Z" style="fill:#dc322f"/>
 <path d="m 73.33 59.17 l 0 16.02 m 0 121.63 l 0 -82.958 c 0 -30.31 24.396 -54.688 54.708 -54.688 c 30.333 0 54.729 24.375 54.729 54.688 l 0 82.958" transform="scale(.1875)" style="fill:none;stroke:#f9f9f9;stroke-linecap:round;stroke-width:7.299"/>
</svg>
